static/assets/template/assets/img/icons/essential/detailed/Calculator.svg

<svg height="149" viewBox="0 0 149 149" width="149" xmlns="http://www.w3.org/2000/svg"><g fill="none" fill-rule="evenodd" transform="translate(2 2)"><path d="m144.1 20.8v105.9c0 10.4-8.4 18.9-18.9 18.9h-105.9c-10.4 0-18.9-8.4-18.9-18.9v-105.9c0-10.4 8.4-18.9 18.9-18.9h105.9c10.4.1 18.9 8.5 18.9 18.9z"/><path d="m144.1 20.8v105.9c0 10.4-8.4 18.9-18.9 18.9h-105.9c-10.4 0-18.9-8.4-18.9-18.9v-105.9c0-10.4 8.4-18.9 18.9-18.9h105.9c10.4.1 18.9 8.5 18.9 18.9z" fill-rule="nonzero"/><path d="m144.1 23.3v103.4c0 10.4-8.4 18.9-18.9 18.9h-101.2c-2.1 0-4-.5-5.7-1.4-3.9-2.1-6.6-6.2-6.6-10.9v-109.9c0-6.8 5.5-12.3 12.3-12.3h107.8c6.8-.1 12.3 5.4 12.3 12.2z" fill-rule="nonzero"/><path d="m144.1 23.3v90.4c0 6.8-5.5 12.3-12.3 12.3h-107.8c-6.8 0-12.3-5.5-12.3-12.3v-90.4c0-6.8 5.5-12.3 12.3-12.3h107.8c6.8 0 12.3 5.5 12.3 12.3z" fill-rule="nonzero"/><g stroke-linecap="round" stroke-linejoin="round" stroke-width="4.1613"><path d="m121.2 73.4h22.9"/><path d="m72 73.4h35.7"/><path d="m11.6 73.4h60.4"/><path d="m72 124.7v3"/><path d="m72 11v103.1"/><path d="m142.5 132.9c-2.9 6.7-9.6 11.3-17.3 11.3h-105.9c-10.4 0-18.9-8.4-18.9-18.9v-105.9c0-10.4 8.4-18.9 18.9-18.9h2.5"/><path d="m59.2.6h66c10.4 0 18.9 8.4 18.9 18.9v90.9"/><path d="m38.8.6h1.8"/><path d="m28.9 37.5h-.8c-2.2 0-4 1.8-4 4s1.8 4 4 4h8v8c0 2.2 1.8 4 4 4s4-1.8 4-4v-8h8c2.2 0 4-1.8 4-4s-1.8-4-4-4h-8v-8c0-2.2-1.8-4-4-4s-4 1.8-4 4v8" fill-rule="nonzero"/><path d="m110.5 37.5h-6.4-8c-2.2 0-4 1.8-4 4s1.8 4 4 4h8 8 8c2.2 0 4-1.8 4-4s-1.8-4-4-4" fill-rule="nonzero"/><g fill-rule="nonzero" transform="translate(92 94)"><path d="m22 8.7h6c2.2 0 4-1.8 4-4s-1.8-4-4-4h-8-8-8c-2.2 0-4 1.8-4 4s1.8 4 4 4h8 8z"/><path d="m28 16h-8-8-8c-2.2 0-4 1.8-4 4s1.8 4 4 4h8 8 8c2.2 0 4-1.8 4-4s-1.8-4-4-4z"/></g><path d="m43.3 98.9-1.8 1.8-5.6-5.6c-1.6-1.6-4.1-1.6-5.6 0-1.6 1.6-1.6 4.1 0 5.6l5.6 5.6-5.6 5.6c-1.6 1.6-1.6 4.1 0 5.6 1.6 1.6 4.1 1.6 5.6 0l5.6-5.6 5.6 5.6c1.6 1.6 4.1 1.6 5.6 0 1.6-1.6 1.6-4.1 0-5.6l-5.6-5.6 5.6-5.6c1.6-1.6 1.6-4.1 0-5.6-.8-.8-1.9-1.2-2.9-1.2" fill-rule="nonzero"/></g></g></svg>

<?xml version="1.0" encoding="UTF-8"?>
<svg width="149px" height="149px" viewBox="0 0 149 149" version="1.1" xmlns="http://www.w3.org/2000/svg" xmlns:xlink="http://www.w3.org/1999/xlink">
    <!-- Generator: Sketch 51.2 (57519) - http://www.bohemiancoding.com/sketch -->
    <title>Calculator</title>
    <desc>Created with Sketch.</desc>
    <defs></defs>
    <g id="Page-1" stroke="none" stroke-width="1" fill="none" fill-rule="evenodd">
        <g id="Calculator" transform="translate(2.000000, 2.000000)">
            <path d="M144.1,20.8 L144.1,126.7 C144.1,137.1 135.7,145.6 125.2,145.6 L19.3,145.6 C8.9,145.6 0.4,137.2 0.4,126.7 L0.4,20.8 C0.4,10.4 8.8,1.9 19.3,1.9 L125.2,1.9 C135.6,2 144.1,10.4 144.1,20.8 Z" id="Shape"></path>
            <path d="M144.1,20.8 L144.1,126.7 C144.1,137.1 135.7,145.6 125.2,145.6 L19.3,145.6 C8.9,145.6 0.4,137.2 0.4,126.7 L0.4,20.8 C0.4,10.4 8.8,1.9 19.3,1.9 L125.2,1.9 C135.6,2 144.1,10.4 144.1,20.8 Z" id="Shape" class="fill-neutral" fill-rule="nonzero"></path>
            <path d="M144.1,23.3 L144.1,126.7 C144.1,137.1 135.7,145.6 125.2,145.6 L24,145.6 C21.9,145.6 20,145.1 18.3,144.2 C14.4,142.1 11.7,138 11.7,133.3 L11.7,23.4 C11.7,16.6 17.2,11.1 24,11.1 L131.8,11.1 C138.6,11 144.1,16.5 144.1,23.3 Z" id="Shape" class="fill-primary-200" fill-rule="nonzero"></path>
            <path d="M144.1,23.3 L144.1,113.7 C144.1,120.5 138.6,126 131.8,126 L24,126 C17.2,126 11.7,120.5 11.7,113.7 L11.7,23.3 C11.7,16.5 17.2,11 24,11 L131.8,11 C138.6,11 144.1,16.5 144.1,23.3 Z" id="Shape" class="fill-primary-100" fill-rule="nonzero"></path>
            <path d="M121.2,73.4 L144.1,73.4" id="Shape" class="stroke-primary-300" stroke-width="4.1613" stroke-linecap="round" stroke-linejoin="round"></path>
            <path d="M72,73.4 L107.7,73.4" id="Shape" class="stroke-primary-300" stroke-width="4.1613" stroke-linecap="round" stroke-linejoin="round"></path>
            <path d="M11.6,73.4 L72,73.4" id="Shape" class="stroke-primary-300" stroke-width="4.1613" stroke-linecap="round" stroke-linejoin="round"></path>
            <path d="M72,124.7 L72,127.7" id="Shape" class="stroke-primary-300" stroke-width="4.1613" stroke-linecap="round" stroke-linejoin="round"></path>
            <path d="M72,11 L72,114.1" id="Shape" class="stroke-primary-300" stroke-width="4.1613" stroke-linecap="round" stroke-linejoin="round"></path>
            <path d="M142.5,132.9 C139.6,139.6 132.9,144.2 125.2,144.2 L19.3,144.2 C8.9,144.2 0.4,135.8 0.4,125.3 L0.4,19.4 C0.4,9 8.8,0.5 19.3,0.5 L21.8,0.5" id="Shape" class="stroke-primary" stroke-width="4.1613" stroke-linecap="round" stroke-linejoin="round"></path>
            <path d="M59.2,0.6 L125.2,0.6 C135.6,0.6 144.1,9 144.1,19.5 L144.1,110.4" id="Shape" class="stroke-primary" stroke-width="4.1613" stroke-linecap="round" stroke-linejoin="round"></path>
            <path d="M38.8,0.6 L40.6,0.6" id="Shape" class="stroke-primary" stroke-width="4.1613" stroke-linecap="round" stroke-linejoin="round"></path>
            <path d="M28.9,37.5 L28.1,37.5 C25.9,37.5 24.1,39.3 24.1,41.5 C24.1,43.7 25.9,45.5 28.1,45.5 L36.1,45.5 L36.1,53.5 C36.1,55.7 37.9,57.5 40.1,57.5 C42.3,57.5 44.1,55.7 44.1,53.5 L44.1,45.5 L52.1,45.5 C54.3,45.5 56.1,43.7 56.1,41.5 C56.1,39.3 54.3,37.5 52.1,37.5 L44.1,37.5 L44.1,29.5 C44.1,27.3 42.3,25.5 40.1,25.5 C37.9,25.5 36.1,27.3 36.1,29.5 L36.1,37.5" id="Shape" class="stroke-primary" stroke-width="4.1613" class="fill-neutral" fill-rule="nonzero" stroke-linecap="round" stroke-linejoin="round"></path>
            <path d="M110.5,37.5 L104.1,37.5 L96.1,37.5 C93.9,37.5 92.1,39.3 92.1,41.5 C92.1,43.7 93.9,45.5 96.1,45.5 L104.1,45.5 L112.1,45.5 L120.1,45.5 C122.3,45.5 124.1,43.7 124.1,41.5 C124.1,39.3 122.3,37.5 120.1,37.5" id="Shape" class="stroke-primary" stroke-width="4.1613" class="fill-neutral" fill-rule="nonzero" stroke-linecap="round" stroke-linejoin="round"></path>
            <g id="Group" transform="translate(92.000000, 94.000000)" class="fill-neutral" fill-rule="nonzero" class="stroke-primary" stroke-linecap="round" stroke-linejoin="round" stroke-width="4.1613">
                <path d="M22,8.7 L28,8.7 C30.2,8.7 32,6.9 32,4.7 C32,2.5 30.2,0.7 28,0.7 L20,0.7 L12,0.7 L4,0.7 C1.8,0.7 0,2.5 0,4.7 C0,6.9 1.8,8.7 4,8.7 L12,8.7 L20,8.7 L22,8.7" id="Shape"></path>
                <path d="M28,16 L20,16 L12,16 L4,16 C1.8,16 0,17.8 0,20 C0,22.2 1.8,24 4,24 L12,24 L20,24 L28,24 C30.2,24 32,22.2 32,20 C32,17.8 30.2,16 28,16 Z" id="Shape"></path>
            </g>
            <path d="M43.3,98.9 L41.5,100.7 L35.9,95.1 C34.3,93.5 31.8,93.5 30.3,95.1 C28.7,96.7 28.7,99.2 30.3,100.7 L35.9,106.3 L30.3,111.9 C28.7,113.5 28.7,116 30.3,117.5 C31.9,119.1 34.4,119.1 35.9,117.5 L41.5,111.9 L47.1,117.5 C48.7,119.1 51.2,119.1 52.7,117.5 C54.3,115.9 54.3,113.4 52.7,111.9 L47.1,106.3 L52.7,100.7 C54.3,99.1 54.3,96.6 52.7,95.1 C51.9,94.3 50.8,93.9 49.8,93.9" id="Shape" class="stroke-primary" stroke-width="4.1613" class="fill-neutral" fill-rule="nonzero" stroke-linecap="round" stroke-linejoin="round"></path>
        </g>
    </g>
</svg>
